X:1
T: The Kildare Fancy
C:
R:Reel
Q: 232
K:D
M:4/4
L:1/8
|:dB|AF DF AF dB|((3ABA) FA fe dc|BA Bf ge fd|ed cB A2 dB|
AF DF AF fd|((3ABA) FA fe dc|BA Bf ge fd|ec ((3ABc) d2:|
|:de|fd cd Bd AF|Dd cd fd cd|eA ((3AAA) fA ((3AAA) |((3efe) ((3dcB) A2 de|
fd cd Bd AF|Dd cd fd cd|eA fA gA fA|ec ((3ABc) d2:|
